Newaita-dark/apps/22/netflix.svg

<svg height="22" viewBox="0 0 22 22" width="22" xmlns="http://www.w3.org/2000/svg" xmlns:xlink="http://www.w3.org/1999/xlink"><linearGradient id="a" gradientUnits="userSpaceOnUse" x1="10.9151136" x2="10.9151136" y1="19.27333715" y2="20.18293042919"><stop offset="0" stop-opacity=".27451"/><stop offset="1" stop-opacity="0"/></linearGradient><linearGradient id="b"><stop offset="0" stop-opacity=".313726"/><stop offset=".222222" stop-opacity=".27451"/><stop offset="1" stop-opacity="0"/></linearGradient><radialGradient id="c" cx="450.908936" cy="189.579361" gradientTransform="matrix(.00000012 -.0537161 -.0966889 -.00000007 35.839821 43.721791)" gradientUnits="userSpaceOnUse" r="21.166656" xlink:href="#b"/><radialGradient id="d" cx="450.908936" cy="189.579361" gradientTransform="matrix(-.00000012 .0537161 .0966889 .00000007 -14.009609 -5.175142)" gradientUnits="userSpaceOnUse" r="21.166656" xlink:href="#b"/><radialGradient id="e" cx="450.908936" cy="189.579361" gradientTransform="matrix(-.00000012 -.0537161 .0966889 -.00000007 -14.009609 43.721791)" gradientUnits="userSpaceOnUse" r="21.166656" xlink:href="#b"/><radialGradient id="f" cx="450.908936" cy="189.579361" gradientTransform="matrix(.00000012 .0537161 -.0966889 .00000007 35.839819 -5.175142)" gradientUnits="userSpaceOnUse" r="21.166656" xlink:href="#b"/><linearGradient id="g" gradientUnits="userSpaceOnUse" x1="7.27674417081" x2="7.27674417081" y1="19.27333515" y2="1.99106765838"><stop offset="0" stop-color="#424242"/><stop offset="1" stop-color="#616161"/></linearGradient><linearGradient id="h"><stop offset="0" stop-color="#f44336"/><stop offset="1" stop-color="#ef5350"/></linearGradient><linearGradient id="i" gradientUnits="userSpaceOnUse" x1="720.00011449082" x2="720.00011449082" xlink:href="#h" y1="1415.11822549082" y2="455.11808325459"/><linearGradient id="j" gradientUnits="userSpaceOnUse" x1="14.09868515419" x2="14.09868515419" xlink:href="#h" y1="16.08975970419" y2="5.17464276041"/><linearGradient id="k" gradientUnits="userSpaceOnUse" x1="14.55348834162" x2="14.55348834162" y1="16.08975970419" y2="5.17464276041"><stop offset="0" stop-color="#e57373"/><stop offset="1" stop-color="#ef9a9a"/></linearGradient><path d="m4.09375 19.207031h13.644531v1.007813h-13.644531zm0 0" fill="url(#a)"/><path d="m17.738281 19.273438h1.816407v-.910157h-1.816407zm0 0" fill="url(#c)"/><path d="m4.09375 19.273438h-1.820312v.910156h1.820312zm0 0" fill="url(#d)"/><path d="m4.09375 19.273438h-1.820312v-.910157h1.820312zm0 0" fill="url(#e)"/><path d="m17.738281 19.273438h1.816407v.910156h-1.816407zm0 0" fill="url(#f)"/><path d="m3.183594 1.992188h15.464844c.5 0 .90625.40625.90625.910156v15.460937c0 .503907-.40625.910157-.90625.910157h-15.464844c-.503906 0-.910156-.40625-.910156-.910157v-15.460937c0-.503906.40625-.910156.910156-.910156zm0 0" fill="url(#g)"/><path d="m3.183594 1.992188c-.503906 0-.910156.40625-.910156.910156v.113281c0-.503906.40625-.910156.910156-.910156h15.464844c.503906 0 .90625.40625.90625.910156v-.113281c0-.503906-.402344-.910156-.90625-.910156zm0 0" fill="#e6e6e6" fill-opacity=".392157"/><path d="m3.183594 19.273438c-.503906 0-.910156-.40625-.910156-.910157v-.113281c0 .503906.40625.910156.910156.910156h15.464844c.503906 0 .90625-.40625.90625-.910156v.113281c0 .503907-.402344.910157-.90625.910157zm0 0" fill-opacity=".196078"/><path d="m74.083834-168.640791h359.874725c11.635253 0 21.088895 9.453643 21.088895 21.179796v359.783824c0 11.726153-9.453642 21.179796-21.088895 21.179796h-359.874725c-11.726152 0-21.179795-9.453643-21.179795-21.179796v-359.783824c0-11.726153 9.453643-21.179796 21.179795-21.179796zm0 0" fill="none" stroke="#212121" stroke-linecap="round" stroke-width="3" transform="matrix(.0429729 0 0 .0429729 0 9.239163)"/><path d="m599.85685 455.217827v959.908384h1.374242c62.871594-26.454168 129.522356-46.380685 198.921602-58.405306v-901.503078zm0 0" fill="url(#i)" stroke="#212121" stroke-width="11.338583" transform="scale(.0113699)"/><path d="m12.734375 5.175781v10.25c.789063.136719 1.542969.363281 2.261719.664063h.011718v-10.914063zm0 0" fill="url(#j)"/><path d="m12.734375 5.230469v.226562h2.273437v-.226562zm0 0" fill="#fff" fill-opacity=".392157"/><path d="m1120.007635 455.217827v901.503078c69.399246 12.024621 135.706446 31.951138 198.921601 58.405306h1.030682v-959.908384zm0 0" fill="none" stroke="#212121" stroke-width="11.338583" transform="scale(.0113699)"/><path d="m6.820312 5.175781 5.523438 10.191407c.925781.125 1.816406.371093 2.652344.722656h.011718l-5.910156-10.914063zm0 0" fill="url(#k)"/><path d="m6.820312 5.242188.125.226562h2.152344l5.757813 10.628906c.046875.019532.09375.039063.140625.058594h.011718l-5.910156-10.914062zm0 0" fill="#fff" fill-opacity=".392157"/><path d="m9.097656 9.371094v.324218l3.246094 5.992188c.136719.019531.269531.039062.40625.0625.039062.007812.082031.015625.121094.023438.011718 0 .019531.003906.027344.003906.039062.007812.082031.015625.121093.023437.003907.003907.007813.003907.011719.003907.042969.007812.089844.019531.132812.027343.003907 0 .011719.003907.015626.003907.042968.011718.085937.019531.128906.03125.007812 0 .015625 0 .019531.003906.046875.007812.089844.019531.132813.03125h.007812c.042969.011718.085938.023437.128906.035156.003906 0 .007813 0 .015625.003906.039063.011719.082031.023438.125.035156.007813 0 .011719.003907.019531.003907.042969.011719.085938.023437.128907.035156.003906.003906.007812.003906.015625.007813.042968.011718.085937.023437.128906.039062.042969.011719.085938.023438.128906.039062.007813.003907.011719.003907.019532.007813.042968.011719.082031.023437.121093.039063.007813.003906.015625.003906.023438.007812.042969.015625.082031.027344.121093.042969.003907 0 .011719.003906.015626.003906.039062.015625.078124.027344.117187.042969.003906.003906.007813.003906.011719.003906.042968.015625.082031.03125.121094.046875.007812.003906.015624.007813.023437.007813.039063.015624.078125.03125.117187.046874.007813.003907.015626.007813.019532.011719.042968.015625.082031.03125.125.046875h.011718v-.320312h-.011718c-.042969-.015625-.082032-.035156-.125-.050782-.003906-.003906-.011719-.003906-.019532-.007812-.039062-.015625-.078124-.03125-.117187-.046875-.007813-.003906-.015625-.003906-.023437-.007813-.039063-.015624-.078126-.03125-.121094-.046874-.003906 0-.007813-.003907-.011719-.003907-.039063-.015625-.078125-.03125-.117187-.042969-.003907-.003906-.011719-.003906-.015626-.007812-.039062-.011719-.078124-.027344-.121093-.039062-.007813-.003907-.015625-.007813-.023438-.007813-.039062-.015625-.078125-.027344-.121093-.042969-.007813 0-.011719-.003906-.019532-.003906-.042968-.015625-.085937-.027344-.128906-.042969-.042969-.011719-.085938-.027343-.128906-.039062-.007813 0-.011719-.003907-.015625-.003907-.042969-.011718-.085938-.023437-.128907-.035156-.007812-.003906-.011718-.003906-.019531-.007812-.042969-.011719-.085937-.023438-.125-.035156-.007812 0-.011719 0-.015625-.003907-.042968-.011719-.085937-.019531-.128906-.03125-.003906 0-.003906 0-.007812 0-.042969-.011719-.085938-.023437-.132813-.035156-.003906 0-.011719 0-.019531-.003906-.042969-.007813-.085938-.019531-.128906-.027344-.003907-.003906-.011719-.003906-.015626-.003906-.042968-.011719-.089843-.019531-.132812-.027344-.003906-.003906-.007812-.003906-.011719-.003906-.039062-.007813-.082031-.015625-.121093-.023438-.007813-.003906-.015626-.003906-.027344-.003906-.039063-.007813-.082032-.015625-.121094-.023437-.136719-.023438-.269531-.046876-.40625-.0625zm0 6.054687c-.789062.136719-1.546875.363281-2.261718.664063h-.015626v.320312h.015626c.714843-.300781 1.472656-.523437 2.261718-.660156zm0 0" fill-opacity=".235294"/><path d="m599.85685 455.217827 485.794722 896.349668c81.423868 10.99394 159.75569 32.63826 233.277664 63.558716h1.030682l-519.807224-959.908384zm0 0" fill="none" stroke="#212121" stroke-width="11.338583" transform="scale(.0113699)"/></svg>

<?xml version="1.0" encoding="UTF-8"?>
<svg xmlns="http://www.w3.org/2000/svg" xmlns:xlink="http://www.w3.org/1999/xlink" width="22px" height="22px" viewBox="0 0 22 22" version="1.1">
<defs>
<linearGradient id="linear0" gradientUnits="userSpaceOnUse" x1="254" y1="233.5" x2="254" y2="254.666672" gradientTransform="matrix(0.0429729,0,0,0.0429729,-0.00000262285,9.239165)">
<stop offset="0" style="stop-color:rgb(0%,0%,0%);stop-opacity:0.27451;"/>
<stop offset="1" style="stop-color:rgb(0%,0%,0%);stop-opacity:0;"/>
</linearGradient>
<radialGradient id="radial0" gradientUnits="userSpaceOnUse" cx="450.908936" cy="189.579361" fx="450.908936" fy="189.579361" r="21.166656" gradientTransform="matrix(0.000000119742,-0.0537161,-0.0966889,-0.0000000698078,35.839821,43.721791)">
<stop offset="0" style="stop-color:rgb(0%,0%,0%);stop-opacity:0.313726;"/>
<stop offset="0.222222" style="stop-color:rgb(0%,0%,0%);stop-opacity:0.27451;"/>
<stop offset="1" style="stop-color:rgb(0%,0%,0%);stop-opacity:0;"/>
</radialGradient>
<radialGradient id="radial1" gradientUnits="userSpaceOnUse" cx="450.908936" cy="189.579361" fx="450.908936" fy="189.579361" r="21.166656" gradientTransform="matrix(-0.000000119742,0.0537161,0.0966889,0.0000000698078,-14.009609,-5.175142)">
<stop offset="0" style="stop-color:rgb(0%,0%,0%);stop-opacity:0.313726;"/>
<stop offset="0.222222" style="stop-color:rgb(0%,0%,0%);stop-opacity:0.27451;"/>
<stop offset="1" style="stop-color:rgb(0%,0%,0%);stop-opacity:0;"/>
</radialGradient>
<radialGradient id="radial2" gradientUnits="userSpaceOnUse" cx="450.908936" cy="189.579361" fx="450.908936" fy="189.579361" r="21.166656" gradientTransform="matrix(-0.000000119742,-0.0537161,0.0966889,-0.0000000698078,-14.009609,43.721791)">
<stop offset="0" style="stop-color:rgb(0%,0%,0%);stop-opacity:0.313726;"/>
<stop offset="0.222222" style="stop-color:rgb(0%,0%,0%);stop-opacity:0.27451;"/>
<stop offset="1" style="stop-color:rgb(0%,0%,0%);stop-opacity:0;"/>
</radialGradient>
<radialGradient id="radial3" gradientUnits="userSpaceOnUse" cx="450.908936" cy="189.579361" fx="450.908936" fy="189.579361" r="21.166656" gradientTransform="matrix(0.000000119742,0.0537161,-0.0966889,0.0000000698078,35.839819,-5.175142)">
<stop offset="0" style="stop-color:rgb(0%,0%,0%);stop-opacity:0.313726;"/>
<stop offset="0.222222" style="stop-color:rgb(0%,0%,0%);stop-opacity:0.27451;"/>
<stop offset="1" style="stop-color:rgb(0%,0%,0%);stop-opacity:0;"/>
</radialGradient>
<linearGradient id="linear1" gradientUnits="userSpaceOnUse" x1="169.333328" y1="233.5" x2="169.333328" y2="-168.666656" gradientTransform="matrix(0.0429729,0,0,0.0429729,0,9.239163)">
<stop offset="0" style="stop-color:rgb(25.882354%,25.882354%,25.882354%);stop-opacity:1;"/>
<stop offset="1" style="stop-color:rgb(38.039216%,38.039216%,38.039216%);stop-opacity:1;"/>
</linearGradient>
<linearGradient id="linear2" gradientUnits="userSpaceOnUse" x1="179.916672" y1="159.416672" x2="179.916672" y2="-94.583336" gradientTransform="matrix(3.779528,0,0,3.779528,40.000015,812.59845)">
<stop offset="0" style="stop-color:rgb(95.686275%,26.274511%,21.176471%);stop-opacity:1;"/>
<stop offset="1" style="stop-color:rgb(93.725491%,32.549021%,31.37255%);stop-opacity:1;"/>
</linearGradient>
<linearGradient id="linear3" gradientUnits="userSpaceOnUse" x1="179.916672" y1="159.416672" x2="179.916672" y2="-94.583336" gradientTransform="matrix(0.0429729,0,0,0.0429729,6.367144,9.239163)">
<stop offset="0" style="stop-color:rgb(95.686275%,26.274511%,21.176471%);stop-opacity:1;"/>
<stop offset="1" style="stop-color:rgb(93.725491%,32.549021%,31.37255%);stop-opacity:1;"/>
</linearGradient>
<linearGradient id="linear4" gradientUnits="userSpaceOnUse" x1="338.666656" y1="159.416672" x2="338.666656" y2="-94.583336" gradientTransform="matrix(0.0429729,0,0,0.0429729,0,9.239163)">
<stop offset="0" style="stop-color:rgb(89.803922%,45.09804%,45.09804%);stop-opacity:1;"/>
<stop offset="1" style="stop-color:rgb(93.725491%,60.392159%,60.392159%);stop-opacity:1;"/>
</linearGradient>
</defs>
<g id="surface1">
<path style=" stroke:none;fill-rule:nonzero;fill:url(#linear0);" d="M 4.09375 19.207031 L 17.738281 19.207031 L 17.738281 20.214844 L 4.09375 20.214844 Z M 4.09375 19.207031 "/>
<path style=" stroke:none;fill-rule:nonzero;fill:url(#radial0);" d="M 17.738281 19.273438 L 19.554688 19.273438 L 19.554688 18.363281 L 17.738281 18.363281 Z M 17.738281 19.273438 "/>
<path style=" stroke:none;fill-rule:nonzero;fill:url(#radial1);" d="M 4.09375 19.273438 L 2.273438 19.273438 L 2.273438 20.183594 L 4.09375 20.183594 Z M 4.09375 19.273438 "/>
<path style=" stroke:none;fill-rule:nonzero;fill:url(#radial2);" d="M 4.09375 19.273438 L 2.273438 19.273438 L 2.273438 18.363281 L 4.09375 18.363281 Z M 4.09375 19.273438 "/>
<path style=" stroke:none;fill-rule:nonzero;fill:url(#radial3);" d="M 17.738281 19.273438 L 19.554688 19.273438 L 19.554688 20.183594 L 17.738281 20.183594 Z M 17.738281 19.273438 "/>
<path style=" stroke:none;fill-rule:nonzero;fill:url(#linear1);" d="M 3.183594 1.992188 L 18.648438 1.992188 C 19.148438 1.992188 19.554688 2.398438 19.554688 2.902344 L 19.554688 18.363281 C 19.554688 18.867188 19.148438 19.273438 18.648438 19.273438 L 3.183594 19.273438 C 2.679688 19.273438 2.273438 18.867188 2.273438 18.363281 L 2.273438 2.902344 C 2.273438 2.398438 2.679688 1.992188 3.183594 1.992188 Z M 3.183594 1.992188 "/>
<path style=" stroke:none;fill-rule:nonzero;fill:rgb(90.196079%,90.196079%,90.196079%);fill-opacity:0.392157;" d="M 3.183594 1.992188 C 2.679688 1.992188 2.273438 2.398438 2.273438 2.902344 L 2.273438 3.015625 C 2.273438 2.511719 2.679688 2.105469 3.183594 2.105469 L 18.648438 2.105469 C 19.152344 2.105469 19.554688 2.511719 19.554688 3.015625 L 19.554688 2.902344 C 19.554688 2.398438 19.152344 1.992188 18.648438 1.992188 Z M 3.183594 1.992188 "/>
<path style=" stroke:none;fill-rule:nonzero;fill:rgb(0%,0%,0%);fill-opacity:0.196078;" d="M 3.183594 19.273438 C 2.679688 19.273438 2.273438 18.867188 2.273438 18.363281 L 2.273438 18.25 C 2.273438 18.753906 2.679688 19.160156 3.183594 19.160156 L 18.648438 19.160156 C 19.152344 19.160156 19.554688 18.753906 19.554688 18.25 L 19.554688 18.363281 C 19.554688 18.867188 19.152344 19.273438 18.648438 19.273438 Z M 3.183594 19.273438 "/>
<path style="fill:none;stroke-width:3;stroke-linecap:round;stroke-linejoin:miter;stroke:rgb(12.941177%,12.941177%,12.941177%);stroke-opacity:1;stroke-miterlimit:4;" d="M 74.083834 -168.640791 L 433.958559 -168.640791 C 445.593812 -168.640791 455.047454 -159.187148 455.047454 -147.460995 L 455.047454 212.322829 C 455.047454 224.048982 445.593812 233.502625 433.958559 233.502625 L 74.083834 233.502625 C 62.357682 233.502625 52.904039 224.048982 52.904039 212.322829 L 52.904039 -147.460995 C 52.904039 -159.187148 62.357682 -168.640791 74.083834 -168.640791 Z M 74.083834 -168.640791 " transform="matrix(0.0429729,0,0,0.0429729,0,9.239163)"/>
<path style="fill-rule:nonzero;fill:url(#linear2);stroke-width:11.338583;stroke-linecap:butt;stroke-linejoin:miter;stroke:rgb(12.941177%,12.941177%,12.941177%);stroke-opacity:1;stroke-miterlimit:4;" d="M 599.85685 455.217827 L 599.85685 1415.126211 L 601.231092 1415.126211 C 664.102686 1388.672043 730.753448 1368.745526 800.152694 1356.720905 L 800.152694 455.217827 Z M 599.85685 455.217827 " transform="matrix(0.0113699,0,0,0.0113699,0,0)"/>
<path style=" stroke:none;fill-rule:nonzero;fill:url(#linear3);" d="M 12.734375 5.175781 L 12.734375 15.425781 C 13.523438 15.5625 14.277344 15.789062 14.996094 16.089844 L 15.007812 16.089844 L 15.007812 5.175781 Z M 12.734375 5.175781 "/>
<path style=" stroke:none;fill-rule:nonzero;fill:rgb(100%,100%,100%);fill-opacity:0.392157;" d="M 12.734375 5.230469 L 12.734375 5.457031 L 15.007812 5.457031 L 15.007812 5.230469 Z M 12.734375 5.230469 "/>
<path style="fill:none;stroke-width:11.338583;stroke-linecap:butt;stroke-linejoin:miter;stroke:rgb(12.941177%,12.941177%,12.941177%);stroke-opacity:1;stroke-miterlimit:4;" d="M 1120.007635 455.217827 L 1120.007635 1356.720905 C 1189.406881 1368.745526 1255.714081 1388.672043 1318.929236 1415.126211 L 1319.959918 1415.126211 L 1319.959918 455.217827 Z M 1120.007635 455.217827 " transform="matrix(0.0113699,0,0,0.0113699,0,0)"/>
<path style=" stroke:none;fill-rule:nonzero;fill:url(#linear4);" d="M 6.820312 5.175781 L 12.34375 15.367188 C 13.269531 15.492188 14.160156 15.738281 14.996094 16.089844 L 15.007812 16.089844 L 9.097656 5.175781 Z M 6.820312 5.175781 "/>
<path style=" stroke:none;fill-rule:nonzero;fill:rgb(100%,100%,100%);fill-opacity:0.392157;" d="M 6.820312 5.242188 L 6.945312 5.46875 L 9.097656 5.46875 L 14.855469 16.097656 C 14.902344 16.117188 14.949219 16.136719 14.996094 16.15625 L 15.007812 16.15625 L 9.097656 5.242188 Z M 6.820312 5.242188 "/>
<path style=" stroke:none;fill-rule:nonzero;fill:rgb(0%,0%,0%);fill-opacity:0.235294;" d="M 9.097656 9.371094 L 9.097656 9.695312 L 12.34375 15.6875 C 12.480469 15.707031 12.613281 15.726562 12.75 15.75 C 12.789062 15.757812 12.832031 15.765625 12.871094 15.773438 C 12.882812 15.773438 12.890625 15.777344 12.898438 15.777344 C 12.9375 15.785156 12.980469 15.792969 13.019531 15.800781 C 13.023438 15.804688 13.027344 15.804688 13.03125 15.804688 C 13.074219 15.8125 13.121094 15.824219 13.164062 15.832031 C 13.167969 15.832031 13.175781 15.835938 13.179688 15.835938 C 13.222656 15.847656 13.265625 15.855469 13.308594 15.867188 C 13.316406 15.867188 13.324219 15.867188 13.328125 15.871094 C 13.375 15.878906 13.417969 15.890625 13.460938 15.902344 C 13.464844 15.902344 13.464844 15.902344 13.46875 15.902344 C 13.511719 15.914062 13.554688 15.925781 13.597656 15.9375 C 13.601562 15.9375 13.605469 15.9375 13.613281 15.941406 C 13.652344 15.953125 13.695312 15.964844 13.738281 15.976562 C 13.746094 15.976562 13.75 15.980469 13.757812 15.980469 C 13.800781 15.992188 13.84375 16.003906 13.886719 16.015625 C 13.890625 16.019531 13.894531 16.019531 13.902344 16.023438 C 13.945312 16.035156 13.988281 16.046875 14.03125 16.0625 C 14.074219 16.074219 14.117188 16.085938 14.160156 16.101562 C 14.167969 16.105469 14.171875 16.105469 14.179688 16.109375 C 14.222656 16.121094 14.261719 16.132812 14.300781 16.148438 C 14.308594 16.152344 14.316406 16.152344 14.324219 16.15625 C 14.367188 16.171875 14.40625 16.183594 14.445312 16.199219 C 14.449219 16.199219 14.457031 16.203125 14.460938 16.203125 C 14.5 16.21875 14.539062 16.230469 14.578125 16.246094 C 14.582031 16.25 14.585938 16.25 14.589844 16.25 C 14.632812 16.265625 14.671875 16.28125 14.710938 16.296875 C 14.71875 16.300781 14.726562 16.304688 14.734375 16.304688 C 14.773438 16.320312 14.8125 16.335938 14.851562 16.351562 C 14.859375 16.355469 14.867188 16.359375 14.871094 16.363281 C 14.914062 16.378906 14.953125 16.394531 14.996094 16.410156 L 15.007812 16.410156 L 15.007812 16.089844 L 14.996094 16.089844 C 14.953125 16.074219 14.914062 16.054688 14.871094 16.039062 C 14.867188 16.035156 14.859375 16.035156 14.851562 16.03125 C 14.8125 16.015625 14.773438 16 14.734375 15.984375 C 14.726562 15.980469 14.71875 15.980469 14.710938 15.976562 C 14.671875 15.960938 14.632812 15.945312 14.589844 15.929688 C 14.585938 15.929688 14.582031 15.925781 14.578125 15.925781 C 14.539062 15.910156 14.5 15.894531 14.460938 15.882812 C 14.457031 15.878906 14.449219 15.878906 14.445312 15.875 C 14.40625 15.863281 14.367188 15.847656 14.324219 15.835938 C 14.316406 15.832031 14.308594 15.828125 14.300781 15.828125 C 14.261719 15.8125 14.222656 15.800781 14.179688 15.785156 C 14.171875 15.785156 14.167969 15.78125 14.160156 15.78125 C 14.117188 15.765625 14.074219 15.753906 14.03125 15.738281 C 13.988281 15.726562 13.945312 15.710938 13.902344 15.699219 C 13.894531 15.699219 13.890625 15.695312 13.886719 15.695312 C 13.84375 15.683594 13.800781 15.671875 13.757812 15.660156 C 13.75 15.65625 13.746094 15.65625 13.738281 15.652344 C 13.695312 15.640625 13.652344 15.628906 13.613281 15.617188 C 13.605469 15.617188 13.601562 15.617188 13.597656 15.613281 C 13.554688 15.601562 13.511719 15.59375 13.46875 15.582031 C 13.464844 15.582031 13.464844 15.582031 13.460938 15.582031 C 13.417969 15.570312 13.375 15.558594 13.328125 15.546875 C 13.324219 15.546875 13.316406 15.546875 13.308594 15.542969 C 13.265625 15.535156 13.222656 15.523438 13.179688 15.515625 C 13.175781 15.511719 13.167969 15.511719 13.164062 15.511719 C 13.121094 15.5 13.074219 15.492188 13.03125 15.484375 C 13.027344 15.480469 13.023438 15.480469 13.019531 15.480469 C 12.980469 15.472656 12.9375 15.464844 12.898438 15.457031 C 12.890625 15.453125 12.882812 15.453125 12.871094 15.453125 C 12.832031 15.445312 12.789062 15.4375 12.75 15.429688 C 12.613281 15.40625 12.480469 15.382812 12.34375 15.367188 Z M 9.097656 15.425781 C 8.308594 15.5625 7.550781 15.789062 6.835938 16.089844 L 6.820312 16.089844 L 6.820312 16.410156 L 6.835938 16.410156 C 7.550781 16.109375 8.308594 15.886719 9.097656 15.75 Z M 9.097656 15.425781 "/>
<path style="fill:none;stroke-width:11.338583;stroke-linecap:butt;stroke-linejoin:miter;stroke:rgb(12.941177%,12.941177%,12.941177%);stroke-opacity:1;stroke-miterlimit:4;" d="M 599.85685 455.217827 L 1085.651572 1351.567495 C 1167.07544 1362.561435 1245.407262 1384.205755 1318.929236 1415.126211 L 1319.959918 1415.126211 L 800.152694 455.217827 Z M 599.85685 455.217827 " transform="matrix(0.0113699,0,0,0.0113699,0,0)"/>
</g>
</svg>
